sites/kit.svelte.dev/src/routes/logo-netlify.svg

<svg width="130" height="128" viewBox="0 0 130 128" fill="none" xmlns="http://www.w3.org/2000/svg">
<path opacity="0.8" d="M91.4937 45.3899C92.1026 45.6987 92.6672 46.1158 93.127 46.6212L105.754 41.0221L93.9739 29.4069L91.3243 45.2214L91.4937 45.3899ZM65.2801 34.8375C65.9092 35.756 66.2843 36.7988 66.4133 37.9057L85.2105 45.827C85.7751 45.3899 86.4244 45.073 87.118 44.8845L90.2032 25.8934L78.7539 13.9453L65.272 34.5407L65.2801 34.8375ZM129.443 64.1884L109.299 44.1545L95.583 49.7336L129.278 63.9799C129.278 63.9799 129.572 64.1884 129.443 64.1884ZM126.084 67.4492L93.74 53.7002C92.8366 54.8914 91.4695 55.6856 89.9773 55.8701L86.5131 77.035C87.5415 78.0778 88.1303 79.4775 88.1303 80.9375L107.661 85.0124L125.579 67.3168V66.9839L126.084 67.4492ZM83.2344 49.2924L65.6793 41.8524C64.4372 43.7334 62.3199 44.8404 60.0696 44.7562H59.0009L44.4463 67.0882L83.3029 50.3552V50.3993C83.2828 50.1066 83.2828 49.8178 83.3029 49.5009C83.3231 49.4368 83.3029 49.3565 83.2384 49.2924H83.2344ZM104.576 88.3815L87.3963 84.848C86.747 85.6862 85.9082 86.3119 84.9161 86.6889L80.8187 111.945L104.681 88.4216C104.681 88.4216 104.637 88.5499 104.572 88.5499L104.576 88.3815ZM80.5445 86.6408C78.887 85.971 77.669 84.5552 77.2254 82.8386L45.2367 76.305L44.773 77.039L73.8055 118.795L75.5477 117.083L80.484 86.7491C80.484 86.7491 80.6493 86.8734 80.5445 86.8133V86.6408ZM45.9102 72.4587L77.5238 78.9361C78.4474 77.3278 80.1049 76.285 81.956 76.1406L85.3799 55.3326L84.6418 54.7069L45.3456 71.46C45.5553 71.7688 45.7449 72.1057 45.9102 72.4587ZM32.6542 77.7008L31.9807 77.039L18.3496 82.61L24.9635 89.1516L32.4848 77.5363L32.6542 77.7008ZM41.6475 79.8345C40.6998 80.2717 39.6512 80.4802 38.6269 80.5043C37.784 80.5043 36.9855 80.376 36.187 80.1072L27.8914 92.1195L64.2719 127.964L70.676 121.631L41.6475 79.8345ZM36.5419 65.7125C37.0863 65.6524 37.655 65.6524 38.2196 65.7125C38.8326 65.6323 39.4617 65.6323 40.0706 65.7125L54.7704 42.9834C53.6211 41.7962 52.9839 40.2079 52.9839 38.5755C52.9234 38.0942 52.9234 37.5929 52.9839 37.1156L35.1304 28.9055L20.7613 42.8149L36.5419 65.7125ZM38.1631 26.1261L55.573 33.5019C56.8312 32.4591 58.4282 31.9136 60.0696 31.9778C60.7834 31.9978 61.4932 32.1021 62.1869 32.3107L75.7817 11.214L64.5421 0.0358887L38.1631 25.7892C38.1631 25.7892 38.1187 26.0619 38.1631 26.1261ZM31.65 69.7875C32.0049 69.1418 32.4445 68.5361 32.9526 67.9907L18.0593 45.8872L0.439697 62.913L31.65 69.7875ZM30.2426 73.5255L3.29093 67.9265L15.1355 79.8786L30.0732 73.5697L30.2426 73.5255Z" fill="#676778"/>
</svg>

<svg xmlns="http://www.w3.org/2000/svg" width="130" height="128" fill="none"><path fill="#676778" d="M91.494 45.39a5.698 5.698 0 0 1 1.633 1.231l12.627-5.599-11.78-11.615-2.65 15.814.17.169ZM65.28 34.837a6.773 6.773 0 0 1 1.133 3.069l18.797 7.921a5.441 5.441 0 0 1 1.908-.942l3.085-18.992-11.45-11.948-13.481 20.596.008.297Zm64.163 29.351-20.144-20.034-13.716 5.58 33.695 14.246s.294.208.165.208Zm-3.359 3.261L93.74 53.7a5.611 5.611 0 0 1-3.763 2.17l-3.464 21.165a5.568 5.568 0 0 1 1.617 3.903l19.531 4.074 17.918-17.695v-.333l.505.465Zm-42.85-18.157-17.555-7.44a6.436 6.436 0 0 1-5.61 2.904h-1.068L44.446 67.088l38.857-16.733v.044a6.697 6.697 0 0 1 0-.898c.02-.064 0-.145-.065-.209h-.004Zm21.342 39.09-17.18-3.534a5.642 5.642 0 0 1-2.48 1.84l-4.097 25.257 23.862-23.523s-.044.128-.109.128l.004-.168ZM80.545 86.64a5.598 5.598 0 0 1-3.32-3.802l-31.988-6.534-.464.734 29.032 41.756 1.743-1.712 4.936-30.334s.165.124.06.064v-.172ZM45.91 72.459l31.614 6.477a5.607 5.607 0 0 1 4.432-2.795l3.424-20.808-.738-.626L45.346 71.46c.21.309.399.646.564.999ZM32.654 77.7l-.673-.662L18.35 82.61l6.613 6.542 7.522-11.616.17.165Zm8.993 2.134c-.947.437-1.996.645-3.02.67a7.528 7.528 0 0 1-2.44-.398L27.891 92.12l36.38 35.844 6.405-6.333-29.029-41.796Zm-5.105-14.122a7.827 7.827 0 0 1 1.678 0 7.15 7.15 0 0 1 1.85 0l14.7-22.73a6.35 6.35 0 0 1-1.786-4.407 5.894 5.894 0 0 1 0-1.46l-17.854-8.21-14.369 13.909 15.78 22.898Zm1.621-39.587 17.41 7.376a6.634 6.634 0 0 1 4.497-1.524c.713.02 1.423.124 2.117.333l13.595-21.097L64.542.036 38.163 25.789s-.044.273 0 .337ZM31.65 69.787a9.01 9.01 0 0 1 1.303-1.796L18.059 45.887.44 62.913l31.211 6.874Zm-1.407 3.738L3.29 67.926 15.136 79.88l14.937-6.31.17-.044Z" opacity=".8"/></svg>
